src/assets/information.svg

<svg fill="none" height="16" viewBox="0 0 16 16" width="16" xmlns="http://www.w3.org/2000/svg"><path clip-rule="evenodd" d="m8 16c4.4183 0 8-3.5817 8-8 0-4.41828-3.5817-8-8-8-4.41827 0-8 3.58172-8 8 0 4.4183 3.58173 8 8 8zm-.784-10.608c.15198.136.36798.204.64801.204.27198 0 .47998-.068.62397-.204.15203-.144.22802-.344.22802-.6s-.07599-.452-.22802-.588c-.14399-.136-.35199-.204-.62397-.204-.28003 0-.49603.068-.64801.204-.14398.136-.216.332-.216.588s.07202.456.216.6zm1.284 7.212v-6h-1.284v6z" fill="#8b939f" fill-rule="evenodd"/></svg>

<svg width="16" height="16" viewBox="0 0 16 16" fill="none" xmlns="http://www.w3.org/2000/svg">
<path fill-rule="evenodd" clip-rule="evenodd" d="M8 16C12.4183 16 16 12.4183 16 8C16 3.58172 12.4183 0 8 0C3.58173 0 0 3.58172 0 8C0 12.4183 3.58173 16 8 16ZM7.216 5.392C7.36798 5.528 7.58398 5.596 7.86401 5.596C8.13599 5.596 8.34399 5.528 8.48798 5.392C8.64001 5.248 8.716 5.048 8.716 4.792C8.716 4.536 8.64001 4.34 8.48798 4.204C8.34399 4.068 8.13599 4 7.86401 4C7.58398 4 7.36798 4.068 7.216 4.204C7.07202 4.34 7 4.536 7 4.792C7 5.048 7.07202 5.248 7.216 5.392ZM8.5 12.604V6.604H7.216V12.604H8.5Z" fill="#8B939F"/>
</svg>
